X:1
T:John's March
C:John Wobus
S:John Wobus composed 9/17/1995
M:2/4
R:reel
K:D
a3g |: f2d2 c2e2 |d4 d3c | B2G2 g2e2 | c2cd c2ag |
f2d2 c2e2 | d4 d3c | B2G2 g2e2 |1 cBc2  d3e :|2 cBc2 d4 ||
 e4 e3d | c2e2 d2B2 | A2c2 F2B2 | ^G2GA G2cd | e4 e3d |
c2e2 d2B2 | c2A2 B2G2 | A2z2 A4 | A2d2 e2A2 |f4 e3f | g2B2 e2d2 |
c2cd c2Bc | d2A2 F3A |B2G2 g3e | c2A2 B2c2 | d2z2 ||
W:Copyright 2002 John Wobus, PGTPPCATPL AORR
